X:13
T:Lent III A
M:4/4
L:1/8
K:F min
V:1 clef=treble
[V:1] A2 AB c2 BA | GF EG A4 | [M:6/4] AB AG F2 AA GF EG | [M:4/4] A2 G2 F4 ||
w: Lord, you are tru-ly the | Sa-vior of the world. | Give me liv-ing wa-ter that I may ne-ver | thirst a-gain. ||

